; generated by PrusaSlicer 2.2.0+win64 on 2020-06-16 at 02:32:45 UTC

; 

; external perimeters extrusion width = 0.45mm
; perimeters extrusion width = 0.45mm
; infill extrusion width = 0.45mm
; solid infill extrusion width = 0.45mm
; top infill extrusion width = 0.40mm
; first layer extrusion width = 0.42mm

M73 P0 R42
M73 Q0 S43
M201 X1000 Y1000 Z200 E5000 ; sets maximum accelerations, mm/sec^2
M203 X200 Y200 Z12 E120 ; sets maximum feedrates, mm/sec
M204 P1250 R1250 T1250 ; sets acceleration (P, T) and retract acceleration (R), mm/sec^2
M205 X8.00 Y8.00 Z0.40 E4.50 ; sets the jerk limits, mm/sec
M205 S0 T0 ; sets the minimum extruding and travel feed rate, mm/sec
M107
M862.3 P "MK3SMMU2S" ; printer model check
M862.1 P0.4 ; nozzle diameter check
M115 U3.9.0 ; tell printer latest fw version
G90 ; use absolute coordinates
M83 ; extruder relative mode
M104 S215 ; set extruder temp
M140 S60 ; set bed temp
Tx
M190 S60 ; wait for bed temp
M109 S215 ; wait for extruder temp
G28 W ; home all without mesh bed level
G80 ; mesh bed leveling

;go outside print area
G1 Y-3.0 F1000.0
G1 Z0.4 F1000.0
; select extruder
Tc
; purge line
G1 X55.0 F2000.0
G1 Z0.3 F1000.0
G92 E0.0
G1 X240.0 E25.0 F2200.0
M73 Q0 S42
M73 P0 R42
G1 Y-2.0 F1000.0
G1 X55.0 E25 F1400.0
G1 Z0.20 F1000.0
G1 X5.0 E4.0 F1000.0

M221 S95
G92 E0.0
G21 ; set units to millimeters
G90 ; use absolute coordinates
M83 ; use relative distances for extrusion
M900 K0.06 ; Filament gcode LA 1.5
M900 K30 ; Filament gcode LA 1.0
;BEFORE_LAYER_CHANGE
G92 E0.0
;0.2


G1 E-0.80000 F2100.00000
G1 Z0.600 F10800.000
;AFTER_LAYER_CHANGE
;0.2
G1 X107.441 Y62.117
G1 Z0.200
G1 E0.80000 F2100.00000
M204 S1000
G1 F1200.000
G1 X108.282 Y60.727 E0.05091
G1 X109.676 Y59.062 E0.06810
G1 X111.342 Y57.668 E0.06810
G1 X112.734 Y56.826 E0.05103
G1 X114.739 Y56.000 E0.06798
G1 X116.268 Y55.629 E0.04933
G1 X118.432 Y55.438 E0.06813
G1 X120.645 Y55.638 E0.06965
G1 X143.656 Y59.892 E0.73375
G1 X144.941 Y60.349 E0.04275
G1 X146.097 Y61.066 E0.04264
G1 X146.906 Y61.819 E0.03464
G1 X147.718 Y62.941 E0.04346
G1 X148.110 Y63.760 E0.02845
G1 X148.377 Y64.611 E0.02798
G1 X148.551 Y66.173 E0.04928
G1 X146.643 Y95.650 E0.92615
G1 X146.250 Y97.143 E0.04843
G1 X145.555 Y98.432 E0.04591
G1 X144.574 Y99.539 E0.04639
G1 X143.389 Y100.375 E0.04546
G1 X142.010 Y100.932 E0.04664
G1 X140.539 Y101.155 E0.04665
G1 X109.561 Y101.251 E0.97130
G1 X108.071 Y101.004 E0.04734
G1 X107.232 Y100.696 E0.02804
G1 X106.456 Y100.279 E0.02761
G1 X105.261 Y99.309 E0.04828
G1 X104.332 Y98.078 E0.04835
G1 X103.928 Y97.248 E0.02893
G1 X103.638 Y96.324 E0.03037
G1 X103.492 Y95.370 E0.03025
G1 X103.490 Y94.413 E0.03001
G1 X106.137 Y66.363 E0.88338
G1 X106.394 Y64.923 E0.04589
G1 X106.624 Y64.092 E0.02702
G1 X107.418 Y62.172 E0.06515
G1 F8640.000
G1 X108.282 Y60.727 E-0.38863
G1 X109.315 Y59.494 E-0.37137
G1 E-0.04000 F2100.00000
G1 Z0.800 F10800.000
G1 X138.920 Y93.521
G1 Z0.200
G1 E0.80000 F2100.00000
G1 F1200.000
G1 X139.119 Y93.329 E0.00865
G1 X139.343 Y93.169 E0.00865
G1 X139.588 Y93.043 E0.00865
G1 X139.849 Y92.954 E0.00865
G1 X140.120 Y92.904 E0.00865
G1 X140.369 Y92.895 E0.00779
G1 X140.666 Y92.923 E0.00935
G1 X140.937 Y92.993 E0.00879
G1 X141.191 Y93.101 E0.00865
G1 X141.426 Y93.245 E0.00865
G1 X141.638 Y93.421 E0.00865
G1 X141.822 Y93.627 E0.00865
G1 X141.974 Y93.857 E0.00865
G1 X142.080 Y94.082 E0.00779
G1 X142.170 Y94.366 E0.00935
G1 X142.211 Y94.644 E0.00879
G1 X142.211 Y94.919 E0.00865
G1 X142.171 Y95.192 E0.00865
G1 X142.091 Y95.456 E0.00865
G1 X141.974 Y95.706 E0.00865
G1 X141.837 Y95.913 E0.00779
G1 X141.642 Y96.139 E0.00935
G1 X141.426 Y96.318 E0.00879
G1 X141.191 Y96.462 E0.00865
G1 X140.937 Y96.569 E0.00865
G1 X140.670 Y96.639 E0.00865
G1 X140.396 Y96.669 E0.00865
G1 X140.120 Y96.659 E0.00865
G1 X139.876 Y96.614 E0.00779
G1 X139.592 Y96.522 E0.00935
G1 X139.343 Y96.394 E0.00879
G1 X139.119 Y96.234 E0.00865
G1 X138.940 Y96.061 E0.00779
G1 X138.754 Y95.828 E0.00935
G1 X138.616 Y95.583 E0.00879
G1 X138.518 Y95.326 E0.00865
G1 X138.458 Y95.057 E0.00865
G1 X138.438 Y94.781 E0.00865
G1 X138.458 Y94.506 E0.00865
G1 X138.518 Y94.237 E0.00865
G1 X138.616 Y93.980 E0.00865
G1 X138.751 Y93.739 E0.00865
G1 X138.883 Y93.568 E0.00677
G1 X139.182 Y93.799 F10800.000
G1 F1200.000
G1 X139.360 Y93.620 E0.00792
G1 X139.540 Y93.492 E0.00692
G1 X139.736 Y93.391 E0.00692
G1 X139.945 Y93.320 E0.00692
G1 X140.162 Y93.279 E0.00692
G1 X140.358 Y93.272 E0.00615
G1 X140.600 Y93.295 E0.00762
G1 X140.815 Y93.351 E0.00697
G1 X141.018 Y93.438 E0.00692
G1 X141.206 Y93.553 E0.00692
G1 X141.376 Y93.694 E0.00692
G1 X141.523 Y93.858 E0.00692
G1 X141.645 Y94.042 E0.00692
G1 X141.728 Y94.220 E0.00615
G1 X141.802 Y94.451 E0.00762
G1 X141.834 Y94.671 E0.00697
G1 X141.834 Y94.892 E0.00692
G1 X141.802 Y95.110 E0.00692
G1 X141.738 Y95.321 E0.00692
G1 X141.645 Y95.521 E0.00692
G1 X141.536 Y95.685 E0.00616
G1 X141.377 Y95.868 E0.00762
G1 X141.206 Y96.010 E0.00697
G1 X141.018 Y96.125 E0.00692
G1 X140.815 Y96.212 E0.00692
G1 X140.601 Y96.267 E0.00692
G1 X140.382 Y96.292 E0.00692
G1 X140.162 Y96.284 E0.00692
G1 X139.969 Y96.248 E0.00616
G1 X139.737 Y96.173 E0.00762
G1 X139.540 Y96.071 E0.00697
G1 X139.360 Y95.943 E0.00692
G1 X139.219 Y95.807 E0.00615
G1 X139.068 Y95.617 E0.00762
G1 X138.959 Y95.423 E0.00697
G1 X138.880 Y95.217 E0.00692
G1 X138.832 Y95.002 E0.00692
G1 X138.816 Y94.781 E0.00692
G1 X138.832 Y94.561 E0.00692
G1 X138.880 Y94.346 E0.00692
G1 X138.959 Y94.140 E0.00692
G1 X139.145 Y93.846 E0.01091
G1 X139.094 Y93.562 F10800.000
G1 F8640.000
G1 X139.360 Y93.620 E-0.07211
G1 X139.540 Y93.492 E-0.05094
G1 X139.736 Y93.391 E-0.05094
G1 X139.945 Y93.320 E-0.05094
G1 X140.162 Y93.279 E-0.05094
G1 X140.358 Y93.272 E-0.04533
G1 X140.600 Y93.295 E-0.05612
G1 X140.815 Y93.351 E-0.05132
G1 X141.018 Y93.438 E-0.05094
G1 X141.206 Y93.553 E-0.05094
G1 X141.376 Y93.694 E-0.05094
G1 X141.523 Y93.858 E-0.05094
G1 X141.645 Y94.042 E-0.05094
G1 X141.728 Y94.220 E-0.04533
G1 X141.769 Y94.349 E-0.03135
G1 E-0.04000 F2100.00000
G1 Z0.800 F10800.000
G1 X137.850 Y92.739
G1 Z0.200
G1 E0.80000 F2100.00000
G1 F1200.000
G1 X138.191 Y92.384 E0.01542
G1 X138.582 Y92.086 E0.01542
G1 X139.023 Y91.846 E0.01576
G1 X139.241 Y91.758 E0.00737
G1 X139.465 Y91.687 E0.00737
G1 X139.959 Y91.592 E0.01575
G1 X140.462 Y91.572 E0.01579
G1 X140.685 Y91.590 E0.00701
G1 X141.178 Y91.685 E0.01574
G1 X141.652 Y91.856 E0.01580
G1 X141.852 Y91.955 E0.00701
G1 X142.274 Y92.228 E0.01573
G1 X142.649 Y92.562 E0.01577
G1 X142.948 Y92.924 E0.01471
G1 X143.204 Y93.356 E0.01576
G1 X143.392 Y93.822 E0.01575
G1 X143.453 Y94.045 E0.00725
G1 X143.529 Y94.535 E0.01555
G1 X143.529 Y95.027 E0.01543
G1 X143.453 Y95.518 E0.01555
G1 X143.392 Y95.741 E0.00725
G1 X143.204 Y96.207 E0.01575
G1 X142.953 Y96.629 E0.01541
G1 X142.633 Y97.017 E0.01577
G1 X142.472 Y97.172 E0.00701
G1 X142.063 Y97.484 E0.01612
G1 X141.871 Y97.598 E0.00701
G1 X141.412 Y97.804 E0.01577
G1 X140.927 Y97.937 E0.01577
G1 X140.707 Y97.971 E0.00701
G1 X140.193 Y97.991 E0.01612
G1 X139.970 Y97.974 E0.00701
G1 X139.476 Y97.878 E0.01577
G1 X139.013 Y97.712 E0.01541
G1 X138.572 Y97.471 E0.01577
G1 X138.380 Y97.336 E0.00736
G1 X138.198 Y97.187 E0.00736
G1 X137.842 Y96.816 E0.01612
G1 X137.706 Y96.639 E0.00701
G1 X137.449 Y96.207 E0.01576
G1 X137.262 Y95.741 E0.01575
G1 X137.201 Y95.518 E0.00725
G1 X137.125 Y95.027 E0.01555
G1 X137.125 Y94.535 E0.01543
G1 X137.201 Y94.045 E0.01555
G1 X137.262 Y93.822 E0.00725
G1 X137.454 Y93.346 E0.01611
G1 X137.560 Y93.150 E0.00701
G1 X137.815 Y92.788 E0.01388
G1 X137.507 Y92.571 F10800.000
G1 F1200.000
G1 X137.939 Y92.102 E0.01999
G1 X138.376 Y91.769 E0.01724
G1 X138.862 Y91.504 E0.01735
G1 X139.114 Y91.403 E0.00851
G1 X139.372 Y91.321 E0.00850
G1 X139.915 Y91.216 E0.01734
G1 X140.469 Y91.195 E0.01738
G1 X140.735 Y91.215 E0.00837
G1 X141.278 Y91.321 E0.01733
G1 X141.800 Y91.508 E0.01739
G1 X142.039 Y91.627 E0.00837
G1 X142.503 Y91.927 E0.01732
G1 X142.916 Y92.295 E0.01736
G1 X143.261 Y92.713 E0.01698
G1 X143.543 Y93.189 E0.01735
G1 X143.750 Y93.702 E0.01735
G1 X143.823 Y93.967 E0.00861
G1 X143.906 Y94.507 E0.01712
G1 X143.906 Y95.056 E0.01724
G1 X143.823 Y95.596 E0.01712
G1 X143.750 Y95.861 E0.00861
G1 X143.543 Y96.374 E0.01735
G1 X143.263 Y96.846 E0.01722
G1 X142.911 Y97.274 E0.01736
G1 X142.718 Y97.459 E0.00837
G1 X142.275 Y97.797 E0.01748
G1 X142.045 Y97.933 E0.00837
G1 X141.540 Y98.160 E0.01736
G1 X141.006 Y98.306 E0.01736
G1 X140.743 Y98.347 E0.00837
G1 X140.185 Y98.368 E0.01748
G1 X139.919 Y98.348 E0.00837
G1 X139.376 Y98.242 E0.01736
G1 X138.859 Y98.057 E0.01723
G1 X138.372 Y97.792 E0.01736
G1 X138.151 Y97.636 E0.00850
G1 X137.942 Y97.464 E0.00850
G1 X137.555 Y97.062 E0.01748
G1 X137.393 Y96.850 E0.00837
G1 X137.111 Y96.374 E0.01735
G1 X136.904 Y95.861 E0.01735
G1 X136.831 Y95.596 E0.00861
G1 X136.748 Y95.056 E0.01712
G1 X136.748 Y94.507 E0.01724
G1 X136.831 Y93.967 E0.01712
G1 X136.904 Y93.702 E0.00861
G1 X137.112 Y93.185 E0.01748
G1 X137.240 Y92.950 E0.00837
G1 X137.472 Y92.620 E0.01268
G1 X137.901 Y92.636 F10800.000
G1 F8640.000
G1 X137.939 Y92.102 E-0.16098
G1 X138.376 Y91.769 E-0.12693
G1 X138.862 Y91.504 E-0.12778
G1 X139.114 Y91.403 E-0.06265
G1 X139.372 Y91.321 E-0.06258
G1 X139.915 Y91.216 E-0.12771
G1 X140.311 Y91.201 E-0.09138
G1 E-0.04000 F2100.00000
G1 Z0.800 F10800.000
G1 X138.991 Y97.570
G1 Z0.200
G1 E0.80000 F2100.00000
G1 F1200.000
G1 X138.178 Y96.758 E0.03720
G1 X137.941 Y96.480 E0.01181
G1 X137.704 Y96.081 E0.01504
G1 X137.496 Y95.525 E0.01919
G1 X139.795 Y97.824 E0.10524
G1 F8640.000
G1 X137.496 Y95.525 E-0.75074
G1 X137.510 Y95.563 E-0.00926
G1 E-0.04000 F2100.00000
G1 Z0.800 F10800.000
G1 X143.366 Y95.340
G1 Z0.200
G1 E0.80000 F2100.00000
G1 F1200.000
G1 X142.467 Y94.441 E0.04115
G1 X142.494 Y94.623 E0.00596
G1 X142.484 Y95.008 E0.01247
G1 X143.124 Y95.648 E0.02931
G1 X142.966 Y96.041 E0.01370
G1 X142.386 Y95.460 E0.02658
G1 X142.221 Y95.846 E0.01358
G1 X142.766 Y96.391 E0.02494
G1 X142.721 Y96.466 E0.00281
G1 X142.526 Y96.702 E0.00992
G1 X141.991 Y96.167 E0.02449
G1 X141.840 Y96.341 E0.00746
G1 X141.717 Y96.444 E0.00518
G1 X142.255 Y96.982 E0.02463
G1 X141.943 Y97.220 E0.01271
G1 X141.393 Y96.670 E0.02519
G1 X141.014 Y96.842 E0.01346
G1 X141.588 Y97.415 E0.02625
G1 X141.317 Y97.537 E0.00962
G1 X141.193 Y97.571 E0.00415
G1 X140.558 Y96.936 E0.02905
G1 X140.406 Y96.953 E0.00495
G1 X139.996 Y96.924 E0.01333
G1 X140.750 Y97.678 E0.03453
G1 X140.227 Y97.706 E0.01693
G1 X137.408 Y94.887 E0.12906
G1 X137.408 Y94.557 E0.01068
G1 X137.438 Y94.366 E0.00626
G1 X138.180 Y95.108 E0.03397
G1 X138.154 Y94.781 E0.01060
G1 X138.171 Y94.549 E0.00754
G1 X137.531 Y93.909 E0.02928
G1 X137.690 Y93.517 E0.01369
G1 X138.269 Y94.096 E0.02652
G1 X138.360 Y93.859 E0.00821
G1 X138.440 Y93.717 E0.00530
G1 X137.892 Y93.169 E0.02505
G1 X138.129 Y92.856 E0.01272
G1 X138.664 Y93.390 E0.02446
G1 X138.936 Y93.112 E0.01260
G1 X138.403 Y92.578 E0.02444
G1 X138.715 Y92.340 E0.01271
G1 X139.265 Y92.891 E0.02520
G1 X139.477 Y92.782 E0.00771
G1 X139.649 Y92.723 E0.00586
G1 X139.069 Y92.143 E0.02655
G1 X139.461 Y91.985 E0.01370
G1 X140.097 Y92.621 E0.02912
G1 X140.377 Y92.611 E0.00906
G1 X140.665 Y92.638 E0.00936
G1 X139.915 Y91.888 E0.03434
G1 X140.433 Y91.856 E0.01682
G1 X143.246 Y94.669 E0.12874
G1 X143.246 Y94.557 E0.00362
G1 X143.155 Y94.028 E0.01738
G1 X141.082 Y91.955 E0.09490
G1 X141.541 Y92.116 E0.01575
G1 X141.712 Y92.201 E0.00619
G1 X142.102 Y92.453 E0.01501
G1 X142.373 Y92.695 E0.01176
G1 X143.115 Y93.437 E0.03397
G1 F8640.000
G1 X142.373 Y92.695 E-0.24235
G1 X142.102 Y92.453 E-0.08390
G1 X141.712 Y92.201 E-0.10711
G1 X141.541 Y92.116 E-0.04413
G1 X141.082 Y91.955 E-0.11236
G1 X141.603 Y92.476 E-0.17015
G1 E-0.04000 F2100.00000
G1 Z0.800 F10800.000
G1 X142.176 Y67.984
G1 Z0.200
G1 E0.80000 F2100.00000
G1 F1200.000
G1 X141.907 Y67.965 E0.00845
G1 X141.644 Y67.907 E0.00845
G1 X141.391 Y67.813 E0.00845
G1 X141.154 Y67.684 E0.00845
G1 X140.939 Y67.522 E0.00845
G1 X140.748 Y67.332 E0.00845
G1 X140.587 Y67.116 E0.00845
G1 X140.457 Y66.879 E0.00845
G1 X140.363 Y66.627 E0.00845
G1 X140.311 Y66.386 E0.00774
G1 X140.286 Y66.099 E0.00904
G1 X140.306 Y65.826 E0.00857
G1 X140.363 Y65.562 E0.00845
G1 X140.457 Y65.310 E0.00845
G1 X140.587 Y65.073 E0.00845
G1 X140.748 Y64.858 E0.00845
G1 X140.939 Y64.667 E0.00845
G1 X141.154 Y64.505 E0.00845
G1 X141.391 Y64.376 E0.00845
G1 X141.644 Y64.282 E0.00845
G1 X141.907 Y64.225 E0.00845
G1 X142.153 Y64.207 E0.00773
G1 X142.441 Y64.224 E0.00904
G1 X142.708 Y64.282 E0.00857
G1 X142.960 Y64.376 E0.00845
G1 X143.197 Y64.505 E0.00845
G1 X143.413 Y64.667 E0.00845
G1 X143.603 Y64.858 E0.00845
G1 X143.765 Y65.073 E0.00845
G1 X143.894 Y65.310 E0.00845
G1 X143.988 Y65.562 E0.00845
G1 X144.046 Y65.826 E0.00845
G1 X144.065 Y66.095 E0.00845
G1 X144.046 Y66.363 E0.00845
G1 X143.988 Y66.627 E0.00845
G1 X143.894 Y66.879 E0.00845
G1 X143.765 Y67.116 E0.00845
G1 X143.603 Y67.332 E0.00845
G1 X143.413 Y67.522 E0.00845
G1 X143.197 Y67.684 E0.00845
G1 X142.960 Y67.813 E0.00845
G1 X142.708 Y67.907 E0.00845
G1 X142.445 Y67.965 E0.00845
G1 X142.236 Y67.979 E0.00657
G1 X142.209 Y67.603 F10800.000
G1 F1200.000
G1 X141.961 Y67.590 E0.00779
G1 X141.750 Y67.544 E0.00676
G1 X141.548 Y67.469 E0.00676
G1 X141.359 Y67.366 E0.00676
G1 X141.186 Y67.237 E0.00676
G1 X141.034 Y67.084 E0.00676
G1 X140.905 Y66.912 E0.00676
G1 X140.801 Y66.722 E0.00676
G1 X140.726 Y66.520 E0.00676
G1 X140.684 Y66.330 E0.00612
G1 X140.665 Y66.096 E0.00735
G1 X140.680 Y65.880 E0.00680
G1 X140.726 Y65.669 E0.00676
G1 X140.801 Y65.467 E0.00676
G1 X140.905 Y65.278 E0.00676
G1 X141.034 Y65.105 E0.00676
G1 X141.186 Y64.953 E0.00676
G1 X141.359 Y64.823 E0.00676
G1 X141.548 Y64.720 E0.00676
G1 X141.750 Y64.645 E0.00676
G1 X141.961 Y64.599 E0.00676
G1 X142.155 Y64.585 E0.00612
G1 X142.389 Y64.599 E0.00735
G1 X142.601 Y64.645 E0.00680
G1 X142.803 Y64.720 E0.00676
G1 X142.993 Y64.823 E0.00676
G1 X143.165 Y64.953 E0.00676
G1 X143.318 Y65.105 E0.00676
G1 X143.447 Y65.278 E0.00676
G1 X143.550 Y65.467 E0.00676
G1 X143.626 Y65.669 E0.00676
G1 X143.671 Y65.880 E0.00676
G1 X143.687 Y66.095 E0.00676
G1 X143.671 Y66.310 E0.00676
G1 X143.626 Y66.520 E0.00676
G1 X143.550 Y66.722 E0.00676
G1 X143.447 Y66.912 E0.00676
G1 X143.318 Y67.084 E0.00676
G1 X143.165 Y67.237 E0.00676
G1 X142.993 Y67.366 E0.00676
G1 X142.803 Y67.469 E0.00676
G1 X142.601 Y67.544 E0.00676
G1 X142.269 Y67.599 E0.01058
G1 X142.093 Y67.823 F10800.000
G1 F8640.000
G1 X141.961 Y67.590 E-0.07111
G1 X141.750 Y67.544 E-0.04978
G1 X141.548 Y67.469 E-0.04978
G1 X141.359 Y67.366 E-0.04978
G1 X141.186 Y67.237 E-0.04978
G1 X141.034 Y67.084 E-0.04978
G1 X140.905 Y66.912 E-0.04978
G1 X140.801 Y66.722 E-0.04978
G1 X140.726 Y66.520 E-0.04978
G1 X140.684 Y66.330 E-0.04509
G1 X140.665 Y66.096 E-0.05412
G1 X140.680 Y65.880 E-0.05010
G1 X140.726 Y65.669 E-0.04978
G1 X140.801 Y65.467 E-0.04978
G1 X140.888 Y65.308 E-0.04178
G1 E-0.04000 F2100.00000
G1 Z0.800 F10800.000
G1 X142.269 Y69.297
G1 Z0.200
G1 E0.80000 F2100.00000
G1 F1200.000
G1 X141.925 Y69.297 E0.01078
G1 X141.708 Y69.272 E0.00684
G1 X141.229 Y69.163 E0.01539
G1 X140.772 Y68.984 E0.01539
G1 X140.570 Y68.877 E0.00719
G1 X140.375 Y68.755 E0.00719
G1 X139.992 Y68.449 E0.01539
G1 X139.658 Y68.089 E0.01539
G1 X139.528 Y67.913 E0.00684
G1 X139.283 Y67.488 E0.01539
G1 X139.107 Y67.041 E0.01505
G1 X138.998 Y66.562 E0.01539
G1 X138.974 Y66.346 E0.00684
G1 X138.974 Y65.844 E0.01574
G1 X138.998 Y65.627 E0.00684
G1 X139.107 Y65.148 E0.01539
G1 X139.283 Y64.701 E0.01505
G1 X139.528 Y64.276 E0.01539
G1 X139.658 Y64.101 E0.00684
G1 X139.999 Y63.733 E0.01574
G1 X140.165 Y63.590 E0.00684
G1 X140.570 Y63.314 E0.01539
G1 X141.012 Y63.101 E0.01539
G1 X141.218 Y63.029 E0.00684
G1 X141.708 Y62.917 E0.01574
G1 X141.925 Y62.892 E0.00684
G1 X142.416 Y62.892 E0.01539
G1 X142.901 Y62.966 E0.01539
G1 X143.112 Y63.022 E0.00684
G1 X143.569 Y63.202 E0.01539
G1 X143.985 Y63.441 E0.01505
G1 X144.368 Y63.748 E0.01539
G1 X144.523 Y63.902 E0.00684
G1 X144.836 Y64.294 E0.01574
G1 X144.952 Y64.479 E0.00684
G1 X145.165 Y64.921 E0.01539
G1 X145.310 Y65.391 E0.01539
G1 X145.378 Y65.844 E0.01436
